X:6
T:Neilidh O'Boyle's Highland
R:highland
D:Altan: Harvest Storm
Z:id:hn-hf-6
M:C|
K:G
(3Bcd dB efge|de (3dcB A2A2|(3Bcd dB efge|dBAc B<GG2:|
(3Bcd gb (3agf ~g2|(3Bcd gb a2 a2|(3Bcd gb (3agf ge|dBAc B<GG2|
(3Bcd gb (3agf ~g2|(3Bcd gb a2ga|aggf gage|dBAc B<GG2||
<end>
<start>
